picto/car-sharing-left.svg

<svg class="color-immutable" width="24" height="24" viewBox="0 0 24 24" fill="none" xmlns="http://www.w3.org/2000/svg"><path d="M0 22.5V1.5C0 0.675 0.675 0 1.5 0H22.5C23.325 0 24 0.675 24 1.5V22.5C24 23.325 23.325 24 22.5 24H1.5C0.675 24 0 23.325 0 22.5Z" fill="#2D327D"/><path d="M18.42 13.736C18.209 13.525 17.923 13.407 17.624 13.407H11.14C10.842 13.407 10.556 13.525 10.345 13.736L7.731 16.35L3.344 16.714C3.149 16.73 3 16.892 3 17.087V19.425C3 19.632 3.168 19.8 3.375 19.8H3.787V19.369C3.787 18.127 4.795 17.119 6.037 17.119C7.279 17.119 8.287 18.127 8.287 19.369V19.8H15.75V19.369C15.75 18.127 16.758 17.119 18 17.119C19.242 17.119 20.25 18.127 20.25 19.369V19.8H20.625C20.832 19.8 21 19.632 21 19.425V16.781C21 16.483 20.881 16.196 20.67 15.985L18.42 13.736ZM13.915 14.494L13.913 16.032C13.913 16.239 13.745 16.406 13.538 16.406H9.279C9.155 16.406 9.054 16.305 9.054 16.181C9.054 16.121 9.078 16.064 9.12 16.022L10.913 14.228C10.983 14.158 11.079 14.118 11.178 14.118H13.54C13.747 14.119 13.915 14.287 13.915 14.494ZM19.487 16.406H15.002C14.795 16.406 14.627 16.238 14.627 16.031V14.494C14.627 14.287 14.795 14.119 15.002 14.119H17.587C17.686 14.119 17.782 14.159 17.852 14.229L19.645 16.023C19.687 16.065 19.711 16.122 19.711 16.182C19.712 16.305 19.611 16.406 19.487 16.406Z" fill="white"/><path fill-rule="evenodd" clip-rule="evenodd" d="M18.016 20.336C17.498 20.336 17.079 19.916 17.079 19.399C17.079 18.881 17.499 18.462 18.016 18.462C18.534 18.462 18.953 18.882 18.953 19.399C18.954 19.916 18.534 20.336 18.016 20.336ZM17.995 17.678C17.053 17.678 16.289 18.443 16.289 19.384C16.289 20.326 17.054 21.09 17.995 21.09C18.937 21.09 19.701 20.326 19.701 19.384C19.702 18.443 18.937 17.678 17.995 17.678Z" fill="white"/><path fill-rule="evenodd" clip-rule="evenodd" d="M6.03901 20.336C5.52201 20.336 5.10201 19.916 5.10201 19.399C5.10201 18.881 5.52201 18.462 6.03901 18.462C6.55701 18.462 6.97701 18.882 6.97701 19.399C6.97701 19.916 6.55701 20.336 6.03901 20.336ZM6.03901 17.692C5.09701 17.692 4.33301 18.457 4.33301 19.398C4.33301 20.34 5.09701 21.104 6.03901 21.104C6.98101 21.104 7.74501 20.34 7.74501 19.398C7.74501 18.457 6.98101 17.692 6.03901 17.692Z" fill="white"/><path d="M5.213 4.381C5.197 4.614 5.119 4.813 4.98 4.978C4.797 5.194 4.539 5.303 4.204 5.303C3.848 5.303 3.571 5.177 3.373 4.926C3.205 4.711 3.12 4.444 3.12 4.123C3.12 3.787 3.22 3.506 3.421 3.282C3.622 3.058 3.89 2.946 4.223 2.946C4.534 2.946 4.784 3.049 4.974 3.254C5.109 3.399 5.184 3.565 5.199 3.754H4.713C4.687 3.627 4.63 3.528 4.543 3.459C4.456 3.39 4.345 3.355 4.212 3.355C3.999 3.355 3.839 3.445 3.734 3.624C3.655 3.761 3.615 3.928 3.615 4.126C3.615 4.329 3.657 4.498 3.74 4.634C3.846 4.807 4.002 4.894 4.209 4.894C4.357 4.894 4.47399 4.85 4.562 4.763C4.65 4.675 4.704 4.548 4.724 4.381H5.213Z" fill="white"/><path d="M7.00999 5.249H6.55499C6.53499 5.183 6.52499 5.12699 6.52499 5.08099C6.38599 5.22399 6.20599 5.295 5.98499 5.295C5.81299 5.295 5.67799 5.255 5.58198 5.175C5.47198 5.083 5.41599 4.95399 5.41599 4.789C5.41599 4.57899 5.51099 4.433 5.70099 4.352C5.77799 4.319 5.91899 4.289 6.12599 4.261C6.30299 4.237 6.41399 4.21499 6.45698 4.19299C6.49998 4.17099 6.52199 4.12599 6.52199 4.05999C6.52199 3.91299 6.42499 3.83999 6.22999 3.83999C6.12599 3.83999 6.05098 3.85799 6.00299 3.89499C5.95499 3.93199 5.92399 3.99599 5.90899 4.08699H5.48699C5.49999 3.90099 5.57099 3.75999 5.69799 3.66499C5.82499 3.56999 6.00599 3.52299 6.24099 3.52299C6.49999 3.52299 6.69199 3.57599 6.81599 3.68099C6.87299 3.73099 6.91199 3.78299 6.93099 3.83999C6.94999 3.89599 6.95899 3.98499 6.95899 4.10699C6.95899 4.13299 6.95699 4.245 6.95399 4.445C6.95199 4.648 6.95099 4.764 6.95099 4.793C6.95099 4.915 6.95499 5.00399 6.96199 5.06099C6.96899 5.11899 6.98499 5.181 7.00999 5.249ZM6.51899 4.438C6.46199 4.474 6.35699 4.50199 6.20499 4.52299C6.09899 4.53899 6.02199 4.55999 5.97499 4.58599C5.90799 4.62199 5.87499 4.683 5.87499 4.769C5.87499 4.839 5.89699 4.893 5.94099 4.932C5.98499 4.971 6.04599 4.98999 6.12499 4.98999C6.25599 4.98999 6.36199 4.944 6.44299 4.852C6.47199 4.82 6.49198 4.78699 6.50299 4.75299C6.51399 4.71899 6.51899 4.673 6.51899 4.617V4.438Z" fill="white"/><path d="M8.34601 3.541V3.973C8.27401 3.96 8.21601 3.953 8.17201 3.953C8.00601 3.953 7.88401 4.023 7.80601 4.162C7.76201 4.241 7.74001 4.371 7.74001 4.553V5.248H7.29401V3.568H7.71901V3.874C7.84001 3.648 8.01601 3.534 8.24601 3.534C8.27501 3.534 8.30801 3.536 8.34601 3.541Z" fill="white"/><path d="M11.113 3.666H10.645C10.636 3.556 10.595 3.472 10.523 3.415C10.451 3.357 10.349 3.328 10.219 3.328C10.103 3.328 10.013 3.351 9.949 3.396C9.886 3.442 9.854 3.506 9.854 3.588C9.854 3.662 9.885 3.715 9.946 3.748C10.005 3.781 10.156 3.827 10.398 3.886C10.653 3.95 10.83 4.014 10.929 4.078C11.11 4.197 11.201 4.363 11.201 4.575C11.201 4.808 11.11 4.991 10.927 5.126C10.766 5.244 10.548 5.303 10.273 5.303C9.967 5.303 9.73 5.233 9.561 5.094C9.392 4.954 9.305 4.755 9.298 4.498H9.787C9.794 4.623 9.826 4.716 9.884 4.776C9.974 4.872 10.11 4.921 10.292 4.921C10.415 4.921 10.512 4.897 10.584 4.849C10.665 4.794 10.706 4.718 10.706 4.623C10.706 4.528 10.649 4.458 10.535 4.414C10.472 4.389 10.325 4.345 10.092 4.28C9.947 4.24 9.833 4.202 9.751 4.166C9.669 4.13 9.603 4.09 9.554 4.046C9.439 3.943 9.382 3.802 9.382 3.621C9.382 3.405 9.472 3.233 9.651 3.107C9.803 3 10.002 2.946 10.246 2.946C10.46 2.946 10.64 2.989 10.784 3.074C10.992 3.196 11.102 3.393 11.113 3.666Z" fill="white"/><path d="M11.941 3V3.8C11.99 3.712 12.06 3.643 12.151 3.593C12.242 3.543 12.342 3.518 12.452 3.518C12.677 3.518 12.838 3.597 12.935 3.756C12.991 3.848 13.02 3.99 13.02 4.181V5.248H12.575V4.261C12.575 4.138 12.558 4.053 12.524 4.006C12.474 3.936 12.395 3.901 12.289 3.901C12.149 3.901 12.048 3.963 11.988 4.086C11.97 4.124 11.957 4.165 11.951 4.211C11.945 4.256 11.942 4.328 11.942 4.428V5.249H11.496V3H11.941Z" fill="white"/><path d="M14.882 5.249H14.427C14.408 5.183 14.398 5.12699 14.398 5.08099C14.259 5.22399 14.079 5.295 13.858 5.295C13.686 5.295 13.551 5.255 13.455 5.175C13.344 5.083 13.289 4.95399 13.289 4.789C13.289 4.57899 13.384 4.433 13.574 4.352C13.651 4.319 13.792 4.289 13.999 4.261C14.176 4.237 14.287 4.21499 14.33 4.19299C14.374 4.17099 14.395 4.12699 14.395 4.05999C14.395 3.91299 14.298 3.83999 14.103 3.83999C13.999 3.83999 13.924 3.85799 13.876 3.89499C13.828 3.93199 13.797 3.99599 13.781 4.08699H13.36C13.373 3.89999 13.444 3.75999 13.571 3.66499C13.698 3.56999 13.879 3.52299 14.114 3.52299C14.373 3.52299 14.565 3.57599 14.689 3.68099C14.746 3.72999 14.785 3.78299 14.804 3.83899C14.823 3.89499 14.832 3.98499 14.832 4.10699C14.832 4.13299 14.83 4.245 14.827 4.445C14.825 4.647 14.824 4.763 14.824 4.793C14.824 4.915 14.828 5.00399 14.835 5.06099C14.841 5.11899 14.857 5.181 14.882 5.249ZM14.391 4.438C14.334 4.474 14.229 4.50199 14.077 4.52299C13.97 4.53899 13.893 4.55999 13.846 4.58599C13.779 4.62199 13.746 4.683 13.746 4.769C13.746 4.839 13.768 4.893 13.812 4.932C13.856 4.971 13.918 4.98999 13.997 4.98999C14.128 4.98999 14.234 4.944 14.315 4.852C14.344 4.82 14.363 4.78699 14.374 4.75299C14.385 4.71899 14.39 4.673 14.39 4.617V4.438H14.391Z" fill="white"/><path d="M16.218 3.541V3.973C16.146 3.96 16.088 3.953 16.044 3.953C15.878 3.953 15.756 4.023 15.678 4.162C15.634 4.24 15.612 4.37 15.612 4.553V5.248H15.166V3.568H15.591V3.874C15.712 3.646 15.888 3.533 16.119 3.533C16.147 3.534 16.18 3.536 16.218 3.541Z" fill="white"/><path d="M16.875 3V3.401H16.429V3H16.875ZM16.875 3.572V5.249H16.429V3.572H16.875Z" fill="white"/><path d="M17.655 3.574V3.809C17.707 3.737 17.756 3.684 17.801 3.651C17.912 3.565 18.045 3.522 18.201 3.522C18.338 3.522 18.455 3.557 18.55 3.627C18.626 3.682 18.679 3.752 18.709 3.837C18.739 3.922 18.754 4.041 18.754 4.195V5.25H18.31V4.287C18.31 4.179 18.301 4.1 18.282 4.05C18.265 4.006 18.235 3.971 18.193 3.945C18.145 3.917 18.09 3.903 18.028 3.903C17.96 3.903 17.899 3.919 17.843 3.952C17.788 3.985 17.747 4.029 17.72 4.086C17.69 4.15 17.675 4.249 17.675 4.383V5.247H17.23V3.574H17.655Z" fill="white"/><path d="M20.671 3.569V5.049C20.671 5.18 20.663 5.285 20.646 5.364C20.63 5.442 20.601 5.514 20.561 5.579C20.432 5.784 20.2 5.887 19.866 5.887C19.4 5.887 19.146 5.711 19.102 5.359H19.551C19.582 5.499 19.69 5.57 19.876 5.57C20.018 5.57 20.116 5.53 20.173 5.45C20.217 5.386 20.239 5.284 20.239 5.142L20.241 4.934C20.126 5.11 19.96 5.199 19.743 5.199C19.533 5.199 19.365 5.125 19.24 4.978C19.113 4.828 19.049 4.626 19.049 4.372C19.049 4.118 19.113 3.914 19.24 3.76C19.372 3.601 19.546 3.522 19.761 3.522C19.873 3.522 19.966 3.543 20.041 3.585C20.116 3.627 20.185 3.697 20.247 3.796V3.569H20.671ZM19.86 3.886C19.735 3.886 19.64 3.938 19.575 4.043C19.523 4.127 19.497 4.234 19.497 4.363C19.497 4.527 19.535 4.652 19.611 4.737C19.677 4.813 19.762 4.851 19.868 4.851C20.001 4.851 20.101 4.795 20.168 4.683C20.219 4.597 20.245 4.488 20.245 4.357C20.245 4.199 20.206 4.077 20.127 3.991C20.062 3.921 19.973 3.886 19.86 3.886Z" fill="white"/></svg>

<svg class="color-immutable" width="24" height="24" viewBox="0 0 24 24" fill="none" xmlns="http://www.w3.org/2000/svg"><g clip-path="url(#a)"><path d="M0 22.5v-21C0 .675.675 0 1.5 0h21c.825 0 1.5.675 1.5 1.5v21c0 .825-.675 1.5-1.5 1.5h-21C.675 24 0 23.325 0 22.5Z" fill="#2D327D"/><path d="M18.42 13.736a1.125 1.125 0 0 0-.796-.329H11.14c-.298 0-.584.118-.795.329L7.731 16.35l-4.387.364a.374.374 0 0 0-.344.373v2.338c0 .207.168.375.375.375h.412v-.431a2.25 2.25 0 0 1 4.5 0v.431h7.463v-.431a2.25 2.25 0 0 1 4.5 0v.431h.375a.375.375 0 0 0 .375-.375v-2.644c0-.298-.119-.585-.33-.796l-2.25-2.249Zm-4.505.758-.002 1.538a.374.374 0 0 1-.375.374H9.279a.225.225 0 0 1-.159-.384l1.793-1.794c.07-.07.166-.11.265-.11h2.362a.377.377 0 0 1 .375.376Zm5.572 1.912h-4.485a.375.375 0 0 1-.375-.375v-1.537c0-.207.168-.375.375-.375h2.585c.099 0 .195.04.265.11l1.793 1.794a.225.225 0 0 1-.158.383Z" fill="#fff"/><path fill-rule="evenodd" clip-rule="evenodd" d="M18.016 20.336a.937.937 0 1 1 0-1.874.937.937 0 0 1 0 1.874Zm-.021-2.658a1.707 1.707 0 1 0 .002 3.414 1.707 1.707 0 0 0-.002-3.414ZM6.039 20.336a.938.938 0 1 1 .001-1.875.938.938 0 0 1-.001 1.875Zm0-2.644a1.707 1.707 0 1 0 .002 3.414 1.707 1.707 0 0 0-.002-3.414Z" fill="#fff"/><path d="M5.213 4.381a1.008 1.008 0 0 1-.233.597c-.183.216-.441.325-.776.325-.356 0-.633-.126-.831-.377-.168-.215-.253-.482-.253-.803 0-.336.1-.617.301-.841.201-.224.469-.336.802-.336.311 0 .561.103.751.308a.81.81 0 0 1 .225.5h-.486a.487.487 0 0 0-.17-.295.518.518 0 0 0-.331-.104.52.52 0 0 0-.478.269.99.99 0 0 0-.119.502c0 .203.042.372.125.508.106.173.262.26.469.26a.48.48 0 0 0 .353-.131.628.628 0 0 0 .162-.382h.489ZM7.01 5.249h-.455a.597.597 0 0 1-.03-.168.72.72 0 0 1-.54.214c-.172 0-.307-.04-.403-.12a.477.477 0 0 1-.166-.386c0-.21.095-.356.285-.437.077-.033.218-.063.425-.091.177-.024.288-.046.331-.068.043-.022.065-.067.065-.133 0-.147-.097-.22-.292-.22-.104 0-.179.018-.227.055-.048.037-.079.101-.094.192h-.422a.546.546 0 0 1 .211-.422c.127-.095.308-.142.543-.142.259 0 .451.053.575.158.057.05.096.102.115.159a.908.908 0 0 1 .028.267l-.005.338a69.39 69.39 0 0 0-.003.348c0 .122.004.211.011.268.007.058.023.12.048.188Zm-.491-.811c-.057.036-.162.064-.314.085a.734.734 0 0 0-.23.063c-.067.036-.1.097-.1.183 0 .07.022.124.066.163a.267.267 0 0 0 .184.058.403.403 0 0 0 .318-.138.274.274 0 0 0 .06-.099.46.46 0 0 0 .016-.136v-.179ZM8.346 3.541v.432a1.038 1.038 0 0 0-.174-.02.391.391 0 0 0-.366.209c-.044.079-.066.209-.066.391v.695h-.446v-1.68h.425v.306c.121-.226.297-.34.527-.34.029 0 .062.002.1.007ZM11.113 3.666h-.468a.34.34 0 0 0-.122-.251.474.474 0 0 0-.304-.087.464.464 0 0 0-.27.068.225.225 0 0 0-.095.192c0 .074.031.127.092.16.059.033.21.079.452.138.255.064.432.128.531.192a.564.564 0 0 1 .272.497.647.647 0 0 1-.274.551c-.161.118-.379.177-.654.177-.306 0-.543-.07-.712-.209-.169-.14-.256-.339-.263-.596h.489c.007.125.039.218.097.278.09.096.226.145.408.145a.52.52 0 0 0 .292-.072.26.26 0 0 0 .122-.226c0-.095-.057-.165-.171-.209a6.012 6.012 0 0 0-.443-.134 2.623 2.623 0 0 1-.341-.114.74.74 0 0 1-.197-.12.54.54 0 0 1-.172-.425c0-.216.09-.388.269-.514.152-.107.351-.161.595-.161.214 0 .394.043.538.128.208.122.318.319.329.592ZM11.941 3v.8a.523.523 0 0 1 .21-.207.614.614 0 0 1 .301-.075c.225 0 .386.079.483.238.056.092.085.234.085.425v1.067h-.445v-.987c0-.123-.017-.208-.051-.255-.05-.07-.129-.105-.235-.105a.311.311 0 0 0-.301.185.414.414 0 0 0-.037.125 1.834 1.834 0 0 0-.009.217v.821h-.446V3h.445ZM14.882 5.249h-.455a.629.629 0 0 1-.029-.168.72.72 0 0 1-.54.214c-.172 0-.307-.04-.403-.12a.474.474 0 0 1-.166-.386c0-.21.095-.356.285-.437.077-.033.218-.063.425-.091.177-.024.288-.046.331-.068.044-.022.065-.066.065-.133 0-.147-.097-.22-.292-.22-.104 0-.179.018-.227.055-.048.037-.079.101-.095.192h-.421a.544.544 0 0 1 .211-.422c.127-.095.308-.142.543-.142.259 0 .451.053.575.158a.37.37 0 0 1 .115.158.915.915 0 0 1 .028.268l-.005.338-.003.348c0 .122.004.211.011.268.006.058.022.12.047.188Zm-.491-.811c-.057.036-.162.064-.314.085a.734.734 0 0 0-.231.063c-.067.036-.1.097-.1.183 0 .07.022.124.066.163a.27.27 0 0 0 .185.058.403.403 0 0 0 .318-.138.271.271 0 0 0 .059-.099.46.46 0 0 0 .016-.136v-.179h.001ZM16.218 3.541v.432a1.038 1.038 0 0 0-.174-.02.391.391 0 0 0-.366.209c-.044.078-.066.208-.066.391v.695h-.446v-1.68h.425v.306c.121-.228.297-.341.528-.341.028.001.061.003.099.008ZM16.875 3v.401h-.446V3h.446Zm0 .572v1.677h-.446V3.572h.446ZM17.655 3.574v.235a.633.633 0 0 1 .546-.287c.137 0 .254.035.349.105a.432.432 0 0 1 .159.21c.03.085.045.204.045.358V5.25h-.444v-.963a.722.722 0 0 0-.028-.237.211.211 0 0 0-.089-.105.321.321 0 0 0-.165-.042.356.356 0 0 0-.185.049.306.306 0 0 0-.123.134.738.738 0 0 0-.045.297v.864h-.445V3.574h.425ZM20.671 3.569v1.48c0 .131-.008.236-.025.315a.662.662 0 0 1-.085.215c-.129.205-.361.308-.695.308-.466 0-.72-.176-.764-.528h.449c.031.14.139.211.325.211.142 0 .24-.04.297-.12.044-.064.066-.166.066-.308l.002-.208a.56.56 0 0 1-.498.265.627.627 0 0 1-.503-.221c-.127-.15-.191-.352-.191-.606s.064-.458.191-.612a.644.644 0 0 1 .521-.238c.112 0 .205.021.28.063a.596.596 0 0 1 .206.211v-.227h.424Zm-.811.317a.315.315 0 0 0-.285.157.6.6 0 0 0-.078.32c0 .164.038.289.114.374a.323.323 0 0 0 .257.114.328.328 0 0 0 .3-.168.632.632 0 0 0 .077-.326c0-.158-.039-.28-.118-.366a.346.346 0 0 0-.267-.105Z" fill="#fff"/></g><defs><clipPath id="a"><path fill="#fff" d="M0 0h24v24H0z"/></clipPath></defs></svg>
